aliba_games/img/icon-xsolla.svg

<svg width="54" height="14" viewBox="0 0 54 14" fill="none" xmlns="http://www.w3.org/2000/svg">
<path d="M6.48265 9.68033L4.08857 13.6878H0.341309L4.45288 6.97398L0.757672 0.98877H4.29675L6.37856 4.52785L8.46037 0.98877H12.0515L8.30424 6.97398L12.4158 13.6878H8.82469L6.48265 9.68033Z" fill="white"/>
<path d="M12.1035 10.253H15.4344C15.6426 11.1377 16.2671 11.502 17.308 11.502C18.2969 11.502 18.7653 11.1898 18.7653 10.6173C18.7653 9.88864 17.6724 9.8366 16.3712 9.68046C14.6017 9.47228 12.5199 9.05592 12.5199 6.60979C12.5199 4.58003 14.0812 3.1748 16.9958 3.1748C20.0664 3.1748 21.4717 4.58003 21.7839 6.60979H18.6092C18.453 5.88116 17.9326 5.51684 16.9437 5.51684C15.9549 5.51684 15.5906 5.88116 15.5906 6.40161C15.5906 7.02616 16.4753 7.13025 17.9846 7.33843C19.7542 7.54661 21.888 8.01502 21.888 10.4091C21.888 12.4909 20.3267 14.0002 17.1519 14.0002C14.0812 14.0002 12.4158 12.647 12.1035 10.253Z" fill="white"/>
<path d="M22.8248 8.79569V8.48342C22.8248 4.99639 24.9587 3.1748 28.0294 3.1748C31.1 3.1748 33.1818 5.04843 33.1818 8.48342V8.79569C33.1818 12.2307 31.1521 13.9482 27.9773 13.9482C24.6985 13.9482 22.8248 12.2307 22.8248 8.79569ZM30.0071 8.74365V8.48342C30.0071 6.81797 29.2784 5.9332 28.0814 5.9332C26.8844 5.9332 26.1037 6.76593 26.1037 8.48342V8.74365C26.1037 10.305 26.8844 11.1377 28.0814 11.1377C29.2264 11.1898 30.0071 10.3571 30.0071 8.74365Z" fill="white"/>
<path d="M34.5872 13.6879V0H37.866V13.6879H34.5872Z" fill="white"/>
<path d="M39.6355 13.6879V0H42.9143V13.6879H39.6355Z" fill="white"/>
<path d="M50.9814 11.9705C50.4089 13.1155 49.2639 13.9482 47.3902 13.9482C45.1523 13.9482 44.0593 12.9073 44.0593 11.1898C44.0593 9.94069 44.5798 9.16001 45.4125 8.63956C46.2452 8.11911 46.9739 7.96297 48.6393 7.70274C50.2007 7.49456 50.8252 7.28638 50.8252 6.66184C50.8252 6.08934 50.4609 5.67298 49.3679 5.67298C48.2229 5.67298 47.7025 6.19343 47.6504 7.18229H44.3716C44.5277 4.78821 46.1411 3.1748 49.3679 3.1748C52.7509 3.1748 54 4.73616 54 7.13025V13.688H51.3457L50.9814 11.9705ZM50.8252 9.57637V8.95183C50.5129 9.16001 50.0445 9.31615 49.42 9.42024C48.5352 9.57637 48.223 9.68046 47.8586 9.88865C47.5984 10.0968 47.4423 10.3571 47.4423 10.7214C47.4423 11.3459 47.8586 11.6061 48.6393 11.6061C49.9404 11.6061 50.8252 10.5652 50.8252 9.57637Z" fill="white"/>
</svg>

<svg width="54" height="14" fill="none" xmlns="http://www.w3.org/2000/svg"><path d="M6.483 9.68l-2.394 4.008H.34l4.112-6.714L.758.989h3.539l2.082 3.539L8.46.988h3.591L8.305 6.975l4.112 6.714H8.825L6.483 9.68z" fill="#fff"/><path d="M12.104 10.253h3.33c.209.885.833 1.249 1.874 1.249.989 0 1.457-.312 1.457-.885 0-.728-1.093-.78-2.394-.937-1.77-.208-3.851-.624-3.851-3.07 0-2.03 1.561-3.435 4.476-3.435 3.07 0 4.476 1.405 4.788 3.435h-3.175c-.156-.729-.676-1.093-1.665-1.093-.99 0-1.353.364-1.353.885 0 .624.884.728 2.394.936 1.77.209 3.903.677 3.903 3.071 0 2.082-1.561 3.591-4.736 3.591-3.07 0-4.736-1.353-5.049-3.747zM22.825 8.796v-.313c0-3.487 2.134-5.308 5.204-5.308 3.071 0 5.153 1.873 5.153 5.308v.313c0 3.435-2.03 5.152-5.205 5.152-3.279 0-5.152-1.717-5.152-5.152zm7.182-.052v-.26c0-1.666-.729-2.55-1.926-2.55s-1.977.832-1.977 2.55v.26c0 1.561.78 2.394 1.977 2.394 1.145.052 1.926-.78 1.926-2.394zM34.587 13.688V0h3.279v13.688h-3.279zM39.636 13.688V0h3.278v13.688h-3.279zM50.981 11.97c-.572 1.146-1.717 1.978-3.59 1.978-2.239 0-3.332-1.04-3.332-2.758 0-1.25.52-2.03 1.354-2.55.832-.52 1.56-.677 3.226-.937 1.562-.208 2.186-.417 2.186-1.041 0-.573-.364-.989-1.457-.989-1.145 0-1.666.52-1.718 1.51h-3.278c.156-2.395 1.77-4.008 4.996-4.008C52.75 3.175 54 4.736 54 7.13v6.558h-2.654l-.365-1.718zm-.156-2.394v-.624c-.312.208-.78.364-1.405.468-.885.156-1.197.26-1.561.469-.26.208-.417.468-.417.832 0 .625.417.885 1.197.885 1.301 0 2.186-1.04 2.186-2.03z" fill="#fff"/></svg>
